X:36
T: Aéire cinn bó rúin, S. 36
N: I0535
O: Irland
S: O'SULLIVAN, Donal: Song of the Irish]
R: Arbeitslied, Brautwerbung]
M: 6/8
L: 1/16
K: Ab
E2 | A4A2A2G2E2 | G4A2B4
d2 | c4A2B4G2 | A6z4
EE | A4A2A2G2E2 | G4A2B4
d2 | c4A2B4G2 | A6z4
c2 | e4e2e4d2 | c4d2B4
d2 | c2c2A2B4A2 | G4E2E4
G2 | A4A2A2G2E2 | G4A2B2c2
d2 | G4A2B2c2d2 | c4A2B4G2 | A6z4

